!!!COM:	Josquin des Pres?
**kern	**kern
*part2	*part1
*staff2	*staff1
*clefF4	*clefGv2
*k[]	*k[]
*M2/1	*M2/1
=1-	=1-
1C	[0c
1F	.
=2	=2
1E	0c_
[1C	.
=3	=3
1C]	0c]
[1c	.
=4	=4
2c]	0d
4B	.
4A	.
1B	.
=5	=5
[0c	[0e
=6	=6
1c]	0e]
[1C	.
=7	=7
1C]	0c
1c	.
=8	=8
2B	[0d
1G	.
4F	.
4E	.
=9	=9
2D	0d]
2.G	.
4A	.
2B	.
=10	=10
2c	1.c
1A	.
2c	4B
.	4A
=11	=11
2B	1.G
1G	.
2F	2A
=12	=12
1G	1B
1E	[1c
=13	=13
0D	2c]
.	4B
.	4A
.	1B
=14	=14
0C	0c
==	==
*-	*-
